src/assets/images/microwave.svg

<svg xmlns="http://www.w3.org/2000/svg" width="48" height="48" fill="none"><path stroke="#C19F74" stroke-linecap="round" stroke-linejoin="round" stroke-width="3" d="M3.514 10.617c.213-2.204 1.84-3.84 4.044-4.047C10.5 6.292 15.594 6 24 6s13.5.292 16.442.57c2.204.208 3.831 1.843 4.044 4.047C44.741 13.255 45 17.529 45 24c0 6.472-.26 10.746-.514 13.383-.213 2.204-1.84 3.84-4.044 4.047C37.5 41.708 32.407 42 24 42s-13.5-.292-16.442-.57c-2.205-.208-3.831-1.843-4.044-4.047C3.26 34.745 3 30.471 3 24c0-6.472.26-10.746.514-13.383"/><path stroke="#C19F74" stroke-linecap="round" stroke-linejoin="round" stroke-width="3" d="M8.162 33.32c.06 1.366 1.09 2.422 2.457 2.492 1.814.093 4.89.188 9.881.188 4.99 0 8.067-.095 9.881-.188 1.367-.07 2.397-1.126 2.457-2.493.08-1.799.162-4.768.162-9.319s-.083-7.52-.162-9.32c-.06-1.366-1.09-2.422-2.457-2.492-1.814-.093-4.89-.188-9.881-.188-4.99 0-8.067.095-9.881.188-1.367.07-2.396 1.126-2.457 2.493C8.082 16.48 8 19.449 8 24s.083 7.52.162 9.32M40 16h-2M40 32h-2M40 21h-2"/></svg>

<svg width="48" height="48" viewBox="0 0 48 48" fill="none" xmlns="http://www.w3.org/2000/svg">
<path d="M3.514 10.617C3.727 8.413 5.354 6.777 7.558 6.57C10.5 6.292 15.594 6 24 6C32.406 6 37.5 6.292 40.442 6.57C42.646 6.778 44.273 8.413 44.486 10.617C44.741 13.255 45 17.529 45 24C45 30.472 44.74 34.746 44.486 37.383C44.273 39.587 42.646 41.223 40.442 41.43C37.5 41.708 32.407 42 24 42C15.594 42 10.5 41.708 7.558 41.43C5.353 41.222 3.727 39.587 3.514 37.383C3.26 34.745 3 30.471 3 24C3 17.528 3.26 13.254 3.514 10.617Z" stroke="#C19F74" stroke-width="3" stroke-linecap="round" stroke-linejoin="round"/>
<path d="M8.162 33.32C8.222 34.686 9.252 35.742 10.619 35.812C12.433 35.905 15.509 36 20.5 36C25.49 36 28.567 35.905 30.381 35.812C31.748 35.742 32.778 34.686 32.838 33.319C32.918 31.52 33 28.551 33 24C33 19.449 32.917 16.48 32.838 14.68C32.778 13.314 31.748 12.258 30.381 12.188C28.567 12.095 25.491 12 20.5 12C15.51 12 12.433 12.095 10.619 12.188C9.252 12.258 8.223 13.314 8.162 14.681C8.082 16.48 8 19.449 8 24C8 28.551 8.083 31.52 8.162 33.32Z" stroke="#C19F74" stroke-width="3" stroke-linecap="round" stroke-linejoin="round"/>
<path d="M40 16H38" stroke="#C19F74" stroke-width="3" stroke-linecap="round" stroke-linejoin="round"/>
<path d="M40 32H38" stroke="#C19F74" stroke-width="3" stroke-linecap="round" stroke-linejoin="round"/>
<path d="M40 21H38" stroke="#C19F74" stroke-width="3" stroke-linecap="round" stroke-linejoin="round"/>
</svg>
